brandFactory_export/1.Light/Ducha baño bañera _1Light.svg

<?xml version="1.0" encoding="UTF-8"?>
<svg width="24px" height="24px" viewBox="0 0 24 24" version="1.1" xmlns="http://www.w3.org/2000/svg" xmlns:xlink="http://www.w3.org/1999/xlink">
    <title>1.Light/Ducha baño bañera _1Light</title>
    <g id="Symbols" stroke="none" stroke-width="1" fill="none" fill-rule="evenodd">
        <g id="1.Light/Ducha-baño-bañera-_1Light" fill="#5CB615" fill-rule="nonzero">
            <path d="M16.9882353,22.010084 C16.8,21.7747899 16.5210084,21.6168067 16.194958,21.6168067 C15.8453782,21.6168067 15.5495798,21.8016807 15.3647059,22.0672269 L8.14453782,22.0672269 C7.95630252,21.8016807 7.66386555,21.6168067 7.31428571,21.6168067 C6.99495798,21.6168067 6.71932773,21.7714286 6.53445378,21.9966387 C4.26554622,21.6302521 1.89243697,19.8016807 1.89243697,17.589916 L1.89243697,14.4235294 L21.7378151,14.4235294 L21.7411765,17.589916 C21.7344538,19.8352941 19.287395,21.6840336 16.9882353,22.010084 M1.66722689,12.097479 L21.9529412,12.097479 C22.3260504,12.097479 22.6285714,12.4 22.6285714,12.7663866 C22.6285714,13.1327731 22.3260504,13.4386555 21.9529412,13.4386555 L1.66722689,13.4386555 C1.29411765,13.4386555 0.991596639,13.1361345 0.991596639,12.7663866 C0.991596639,12.3966387 1.29747899,12.097479 1.66722689,12.097479 M13.8521008,10.7697479 C14.0672269,10.5848739 14.4840336,10.5915966 14.6117647,10.6117647 C14.7394958,10.6319328 14.8840336,10.5983193 14.9915966,10.5142857 C15.0991597,10.4302521 15.1697479,10.3092437 15.1831933,10.1747899 C15.210084,9.88571429 15.3042017,9.68739496 15.4655462,9.57310924 C15.7411765,9.37478992 16.2016807,9.42857143 16.3529412,9.46554622 C16.5243697,9.50588235 16.702521,9.45882353 16.8268908,9.33445378 C17.1428571,9.01848739 17.4554622,8.87731092 17.7512605,8.90420168 C18.2453782,8.94453782 18.692437,9.42184874 18.8235294,9.6 C18.9243697,9.74789916 19.0991597,9.82184874 19.2806723,9.80504202 C19.8957983,9.74453782 20.3663866,9.8487395 20.6756303,10.1210084 C21.0386555,10.4470588 21.1092437,10.9378151 21.1260504,11.112605 L13.697479,11.112605 C13.7243697,10.8907563 13.8151261,10.8 13.8521008,10.7697479 M10.0705882,5.09243697 L7.62352941,5.12941176 L7.62352941,5.09243697 C7.62352941,4.42352941 8.17142857,3.8789916 8.84705882,3.8789916 C9.52268908,3.8789916 10.0705882,4.42352941 10.0705882,5.09243697 M23.6235294,12.7663866 C23.6235294,11.9092437 22.9613445,11.210084 22.1176471,11.1294118 C22.107563,10.887395 22.0235294,10.010084 21.3478992,9.39831933 C20.8739496,8.97142857 20.2352941,8.76638655 19.4453782,8.80336134 C19.1663866,8.49747899 18.5882353,7.98319328 17.8352941,7.91932773 C17.297479,7.86554622 16.7865546,8.05378151 16.3092437,8.4605042 C15.9663866,8.42352941 15.3781513,8.42352941 14.8907563,8.76638655 C14.6756303,8.91764706 14.4201681,9.17983193 14.2789916,9.62352941 C13.9596639,9.64369748 13.5428571,9.73445378 13.2033613,10.0201681 C12.9882353,10.205042 12.7428571,10.5512605 12.702521,11.112605 L3.38823529,11.112605 L3.38823529,3.47563025 C3.38823529,2.1210084 4.50084034,1.01512605 5.86890756,1.01512605 C7.0487395,1.01512605 8.05042017,1.85546218 8.28907563,2.97142857 C7.33781513,3.21680672 6.63193277,4.07058824 6.63193277,5.08907563 L6.63193277,5.32773109 C6.63193277,5.75798319 6.98823529,6.11092437 7.42184874,6.11092437 L10.2722689,6.11092437 C10.7092437,6.11092437 11.0621849,5.75798319 11.0621849,5.32773109 L11.0621849,5.08907563 C11.0621849,4.02689076 10.2991597,3.13613445 9.28403361,2.93445378 C9.01848739,1.28739496 7.57647059,0.0268907563 5.86890756,0.0268907563 C3.95294118,0.0268907563 2.39663866,1.5697479 2.39663866,3.46890756 L2.39663866,11.1058824 L1.66722689,11.1058824 C0.746218487,11.1058824 0,11.8453782 0,12.7596639 C0,13.4016807 0.369747899,13.9495798 0.907563025,14.2252101 C0.904201681,14.2453782 0.894117647,14.2655462 0.894117647,14.2857143 L0.894117647,17.5798319 C0.894117647,20.3193277 3.64369748,22.507563 6.34957983,22.9546218 C6.48739496,23.3546218 6.8605042,23.6470588 7.31092437,23.6470588 C7.72773109,23.6470588 8.08403361,23.3983193 8.24537815,23.0420168 L15.2605042,23.0420168 C15.4218487,23.394958 15.7781513,23.6470588 16.194958,23.6470588 C16.6386555,23.6470588 17.0117647,23.3613445 17.1563025,22.9714286 C19.8991597,22.5680672 22.7294118,20.3596639 22.7294118,17.5764706 L22.7260504,14.2151261 C23.2537815,13.9529412 23.6235294,13.405042 23.6235294,12.7663866" id="Ducha-baño-bañera-_1Light"></path>
        </g>
    </g>
</svg>

<svg width="24" height="24" viewBox="0 0 24 24" xmlns="http://www.w3.org/2000/svg"><path d="M16.988 22.01a1.011 1.011 0 00-.793-.393c-.35 0-.645.185-.83.45h-7.22a1.016 1.016 0 00-.83-.45c-.32 0-.596.154-.78.38-2.27-.367-4.643-2.195-4.643-4.407v-3.166h19.846l.003 3.166c-.007 2.245-2.454 4.094-4.753 4.42m-15.32-9.913h20.285c.373 0 .676.303.676.67a.677.677 0 01-.676.672H1.667a.675.675 0 01-.675-.673c0-.37.305-.669.675-.669m12.185-1.327c.215-.185.632-.178.76-.158a.504.504 0 00.38-.098.495.495 0 00.191-.34c.027-.288.121-.487.283-.6.275-.2.736-.145.887-.108.171.04.35-.007.474-.132.316-.316.628-.457.924-.43.494.04.941.518 1.073.696a.49.49 0 00.457.205c.615-.06 1.085.044 1.395.316.363.326.433.817.45.992h-7.429c.027-.222.118-.313.155-.343m-3.781-5.678l-2.447.037v-.037A1.22 1.22 0 018.847 3.88a1.22 1.22 0 011.224 1.213m13.553 7.674c0-.857-.663-1.556-1.506-1.637-.01-.242-.094-1.119-.77-1.73-.474-.428-1.113-.633-1.903-.596-.279-.306-.857-.82-1.61-.884-.538-.053-1.048.135-1.526.542-.343-.037-.93-.037-1.418.305a1.62 1.62 0 00-.612.858c-.32.02-.736.11-1.076.396-.215.185-.46.531-.5 1.093H3.388V3.476c0-1.355 1.113-2.46 2.48-2.46 1.18 0 2.182.84 2.421 1.955A2.196 2.196 0 006.632 5.09v.239c0 .43.356.783.79.783h2.85c.437 0 .79-.353.79-.783v-.239a2.204 2.204 0 00-1.778-2.155A3.474 3.474 0 005.869.027c-1.916 0-3.472 1.543-3.472 3.442v7.637h-.73A1.66 1.66 0 000 12.76c0 .642.37 1.19.908 1.465-.004.02-.014.04-.014.06v3.295c0 2.74 2.75 4.928 5.456 5.375a1.017 1.017 0 001.895.087h7.016c.16.353.517.605.934.605.444 0 .817-.286.961-.676 2.743-.403 5.573-2.611 5.573-5.395l-.003-3.36c.528-.263.898-.811.898-1.45" fill="#5CB615" fill-rule="nonzero"/></svg>
